www/assets/icons/window.svg

<svg xmlns="http://www.w3.org/2000/svg" width="24" height="24" viewBox="0 0 24 24" fill='currentColor'><path d="M11 11V3H5c-1.1 0-2 .9-2 2v6zm2 0h8V5c0-1.1-.9-2-2-2h-6zm-2 2H3v6c0 1.1.9 2 2 2h6zm2 0v8h6c1.1 0 2-.9 2-2v-6z"/></svg>

<svg width="24" height="24" viewBox="0 0 24 24" xmlns="http://www.w3.org/2000/svg" fill='currentColor'><path d="M11 11V3H5C3.9 3 3 3.9 3 5V11H11ZM13 11H21V5C21 3.9 20.1 3 19 3H13V11ZM11 13H3V19C3 20.1 3.9 21 5 21H11V13ZM13 13V21H19C20.1 21 21 20.1 21 19V13H13Z"/></svg>
